X: 20
T: Dandelion Quadrille
M:2/4
L:1/8
S:Viola "Mom" Ruth - Pioneer Western Folk Tunes (1948)
K:F
cAFd|c/A/F/A/ dc|f/g/f/e/ d/e/d/c/|B3 G/A/|BGEc|B/G/E/G/ BE|1
e/f/e/d/ c/d/c/B/|A/B/A/G/ F2 (A/B/):|2 e/f/e/d/ c/d/e/g/|f/e/f/g/ [A2f2]||
|:G/c/e/c/ e/g/e/c/|AG G2|G/c/e/c/ e/g/e/c/|fB [G2B2]|
B/d/f/d/ B/d/f/d/|ec G2|G/A/B/d/ G/A/B/d/|c/B/c/d/ c2:|

%%sep 1 1 500
